X: 22458
T: Lady Ann Bothwel's Lament
R: waltz
M: 3/4
K: Dmajor
AFE|"D"D2 F2 "Asus4"E>B,|"D"A,3 AGF|"Em7"G2 "Asus4"F2 "Asus4"G>A|"G"B3 AFE|
"D"D2 F2 "Asus4"E>B,|"D"A,3 AGF|"Em7"G2 "Asus4"F2 "Asus4"G>A|"G"B3 AAG|
"G"A3 B "Asus4"AG|"D"A3 A Bd|"G"d2 d2 "Asus4"B>A|"D"A3 d AF|
"Em7"G3 F "D/F#"GA|"G6"B3 A FE|"G"D3 E "Asus4"F>D|"D"D3||

